public/images/logos/firebase.svg

<svg width="28" height="28" viewBox="0 0 28 28" fill="none" xmlns="http://www.w3.org/2000/svg">
<g clip-path="url(#clip0_123_8)">
<path d="M17.1657 10.1136L14.3654 12.7209L11.7661 7.47568L13.1089 4.45979C13.4483 3.8582 14.0033 3.85026 14.3427 4.45979L17.1657 10.1136Z" fill="#FFA000"/>
<path d="M14.3666 12.7196L3.89209 22.462L11.7672 7.47559L14.3666 12.7196Z" fill="#F57F17"/>
<path d="M20.236 6.12604C20.7377 5.64817 21.2542 5.80935 21.3847 6.48812L24.1078 22.3303L15.076 27.7526C14.7593 27.9297 13.9193 27.9989 13.9193 27.9989C13.9193 27.9989 13.1554 27.9058 12.8626 27.7447L3.89209 22.462L20.236 6.12604Z" fill="#FFCA28"/>
<path d="M11.7672 7.47576L3.89209 22.4621L7.40174 0.557482C7.53341 -0.121292 7.9182 -0.190532 8.26553 0.411057L11.7672 7.47576Z" fill="#FFA000"/>
</g>
<defs>
<clipPath id="clip0_123_8">
<rect width="20.2157" height="28" fill="white" transform="translate(3.89209)"/>
</clipPath>
</defs>
</svg>

<svg xmlns="http://www.w3.org/2000/svg" width="28" height="28" fill="none" xmlns:v="https://vecta.io/nano"><g clip-path="url(#A)"><path d="M17.166 10.114l-2.8 2.607-2.599-5.245 1.343-3.016c.339-.602.894-.61 1.234 0l2.823 5.654z" fill="#ffa000"/><path d="M14.367 12.72L3.892 22.462l7.875-14.986 2.599 5.244z" fill="#f57f17"/><path d="M20.236 6.126c.502-.478 1.018-.317 1.149.362l2.723 15.842-9.032 5.422c-.317.177-1.157.246-1.157.246s-.764-.093-1.057-.254l-8.971-5.283L20.236 6.126z" fill="#ffca28"/><path d="M11.767 7.476L3.892 22.462 7.402.557c.132-.679.516-.748.864-.146l3.502 7.065z" fill="#ffa000"/></g><defs><clipPath id="A"><path fill="#fff" transform="translate(3.892)" d="M0 0h20.216v28H0z"/></clipPath></defs></svg>
